images_sukapura_svg/cmd/32/freezepanesfirstcolumn.svg

<svg height="32" viewBox="0 0 32 32" width="32" xmlns="http://www.w3.org/2000/svg" xmlns:xlink="http://www.w3.org/1999/xlink"><filter id="a" color-interpolation-filters="sRGB" height="1.048" width="1.048" x="-.024" y="-.024"><feGaussianBlur stdDeviation=".24"/></filter><path d="m4.5 4.5v25h25v-25z" fill-opacity=".079681" filter="url(#a)"/><path d="m4 4h24v24h-24z" fill="#fff"/><path d="m11 4v4 1h-1-6v1h6 1v5h-1-6v1h6 1v1 4h-7v1h7v6h1v-6h8v6h1v-6h7v-1h-7v-4-1h1 6v-1h-6-1v-5h1 6v-1h-6-1v-1-4h-1v4 1h-8v-1-4zm1 6h8v5h-8zm0 6h8v1 4h-8v-4z" fill="#bababa"/><path d="m3 3v26h26v-26zm1 1h7 1 8 1 7v5 1 5 1 5 1 6h-7-1-8-1-7v-6-1-5-1-5-1z" fill="#69696e"/><path d="m3 3v6 1 6 6 7h9v-8-4-5-2-1.6132812-4.3867188-1h-1zm1 1h6.140625l-6.140625 4.3867188zm7 .6132812v3.3867188 1h-1-5.140625zm-7 5.3867188h6l-6 4.386719zm7 .5v4.5h-1-5.140625zm-7 5.5h6l-6 4.386719zm7 .5v.5 4h-6.140625zm-7 5.5h6.232422l-6.232422 5.341797zm7 .658203v5.341797h-6.2324219z" fill="#ff9500"/></svg>

<?xml version="1.0" encoding="UTF-8" standalone="no"?>
<svg
   xmlns:dc="http://purl.org/dc/elements/1.1/"
   xmlns:cc="http://creativecommons.org/ns#"
   xmlns:rdf="http://www.w3.org/1999/02/22-rdf-syntax-ns#"
   xmlns:svg="http://www.w3.org/2000/svg"
   xmlns="http://www.w3.org/2000/svg"
   xmlns:sodipodi="http://sodipodi.sourceforge.net/DTD/sodipodi-0.dtd"
   xmlns:inkscape="http://www.inkscape.org/namespaces/inkscape"
   viewBox="0 0 32 32"
   version="1.1"
   id="svg42"
   sodipodi:docname="freezepanesfirstcolumn.svg"
   inkscape:export-filename="/home/rizmut/Dokumen/Rizmut/Github/libreoffice-style-sukapura/images_sukapura/cmd/32/freezepanes.png"
   inkscape:export-xdpi="96"
   inkscape:export-ydpi="96"
   inkscape:version="0.92.3 (unknown)"
   width="32"
   height="32">
  <metadata
     id="metadata48">
    <rdf:RDF>
      <cc:Work
         rdf:about="">
        <dc:format>image/svg+xml</dc:format>
        <dc:type
           rdf:resource="http://purl.org/dc/dcmitype/StillImage" />
        <dc:title></dc:title>
      </cc:Work>
    </rdf:RDF>
  </metadata>
  <defs
     id="defs46">
    <filter
       style="color-interpolation-filters:sRGB"
       id="b"
       height="1.094553"
       width="1.097492"
       x="-0.048746001"
       y="-0.047277">
      <feGaussianBlur
         stdDeviation=".36559322"
         id="feGaussianBlur1010" />
    </filter>
    <clipPath
       clipPathUnits="userSpaceOnUse"
       id="clipPath1656">
      <path
         sodipodi:nodetypes="ccccc"
         inkscape:connector-curvature="0"
         style="fill:#000000;fill-opacity:1;stroke:none;stroke-opacity:1"
         id="path1658"
         d="m 8,7 h 10 v 7 H 8 Z" />
    </clipPath>
    <filter
       inkscape:collect="always"
       style="color-interpolation-filters:sRGB"
       id="filter1685"
       x="-0.024"
       width="1.048"
       y="-0.024"
       height="1.048">
      <feGaussianBlur
         inkscape:collect="always"
         stdDeviation="0.24"
         id="feGaussianBlur1687" />
    </filter>
  </defs>
  <sodipodi:namedview
     pagecolor="#ffffff"
     bordercolor="#666666"
     borderopacity="1"
     objecttolerance="10"
     gridtolerance="10"
     guidetolerance="10"
     inkscape:pageopacity="0"
     inkscape:pageshadow="2"
     inkscape:window-width="1366"
     inkscape:window-height="699"
     id="namedview44"
     showgrid="true"
     inkscape:measure-start="0,0"
     inkscape:measure-end="0,0"
     inkscape:zoom="9.8333334"
     inkscape:cx="9.4163358"
     inkscape:cy="17.802019"
     inkscape:window-x="0"
     inkscape:window-y="0"
     inkscape:window-maximized="1"
     inkscape:current-layer="svg42"
     inkscape:snap-global="true">
    <inkscape:grid
       type="xygrid"
       id="grid2885"
       spacingx="0.5"
       spacingy="0.5"
       empspacing="2" />
  </sodipodi:namedview>
  <path
     inkscape:connector-curvature="0"
     style="fill:#000000;fill-opacity:0.07968128;filter:url(#filter1685)"
     d="m 4.5,4.5 v 25 h 25 v -25 z"
     id="path2-6"
     sodipodi:nodetypes="ccccc" />
  <rect
     style="opacity:1;fill:#ffffff;fill-opacity:1;stroke:none;stroke-width:1;stroke-linecap:round;stroke-linejoin:round;stroke-miterlimit:4;stroke-dasharray:none;stroke-opacity:0"
     id="rect1689"
     width="24"
     height="24"
     x="4"
     y="4" />
  <path
     id="path1679"
     d="M 11 4 L 11 8 L 11 9 L 10 9 L 4 9 L 4 10 L 10 10 L 11 10 L 11 15 L 10 15 L 4 15 L 4 16 L 10 16 L 11 16 L 11 17 L 11 21 L 4 21 L 4 22 L 11 22 L 11 28 L 12 28 L 12 22 L 20 22 L 20 28 L 21 28 L 21 22 L 28 22 L 28 21 L 21 21 L 21 17 L 21 16 L 22 16 L 28 16 L 28 15 L 22 15 L 21 15 L 21 10 L 22 10 L 28 10 L 28 9 L 22 9 L 21 9 L 21 8 L 21 4 L 20 4 L 20 8 L 20 9 L 12 9 L 12 8 L 12 4 L 11 4 z M 12 10 L 20 10 L 20 15 L 12 15 L 12 10 z M 12 16 L 20 16 L 20 17 L 20 21 L 12 21 L 12 17 L 12 16 z "
     style="fill:#bababa;fill-opacity:1" />
  <path
     style="fill:#69696e;fill-opacity:1"
     d="M 3 3 L 3 29 L 29 29 L 29 3 L 3 3 z M 4 4 L 11 4 L 12 4 L 20 4 L 21 4 L 28 4 L 28 9 L 28 10 L 28 15 L 28 16 L 28 21 L 28 22 L 28 28 L 21 28 L 20 28 L 12 28 L 11 28 L 4 28 L 4 22 L 4 21 L 4 16 L 4 15 L 4 10 L 4 9 L 4 4 z "
     id="path1671" />
  <path
     style="fill:#ff9500;fill-opacity:1"
     d="M 3 3 L 3 9 L 3 10 L 3 16 L 3 22 L 3 29 L 12 29 L 12 21 L 12 17 L 12 12 L 12 10 L 12 8.3867188 L 12 4 L 12 3 L 11 3 L 3 3 z M 4 4 L 10.140625 4 L 4 8.3867188 L 4 4 z M 11 4.6132812 L 11 8 L 11 9 L 10 9 L 4.859375 9 L 11 4.6132812 z M 4 10 L 10 10 L 4 14.386719 L 4 10 z M 11 10.5 L 11 15 L 10 15 L 4.859375 15 L 11 10.5 z M 4 16 L 10 16 L 4 20.386719 L 4 16 z M 11 16.5 L 11 17 L 11 21 L 4.859375 21 L 11 16.5 z M 4 22 L 10.232422 22 L 4 27.341797 L 4 22 z M 11 22.658203 L 11 28 L 4.7675781 28 L 11 22.658203 z "
     id="path8-1" />
</svg>
